src/images/trading_app/purchase/trade_types/ic_stays_between_light.svg

<?xml version="1.0" encoding="UTF-8"?>
<svg width="16px" height="16px" viewBox="0 0 16 16" version="1.1" xmlns="http://www.w3.org/2000/svg" xmlns:xlink="http://www.w3.org/1999/xlink">
    <!-- Generator: Sketch 50.2 (55047) - http://www.bohemiancoding.com/sketch -->
    <title>icons/trade types/light/stays between-goes outside/ic-light-stays-between</title>
    <desc>Created with Sketch.</desc>
    <defs></defs>
    <g id="icons/trade-types/light/stays-between-goes-outside/ic-light-stays-between" stroke="none" stroke-width="1" fill="none" fill-rule="evenodd">
        <g id="binary/icons/Stays-In/-Stays-in-Off">
            <rect id="Rectangle-9" transform="translate(8.000000, 8.000000) rotate(0.000000) translate(-8.000000, -8.000000) " x="0" y="0" width="16" height="16"></rect>
            <rect id="Rectangle-Copy" fill="#2A3052" transform="translate(8.000000, 11.500000) scale(-1, -1) translate(-8.000000, -11.500000) " x="0" y="11" width="16" height="1" rx="0.5"></rect>
            <rect id="Rectangle-Copy-2" fill="#2A3052" transform="translate(8.000000, 4.500000) scale(-1, -1) translate(-8.000000, -4.500000) " x="0" y="4" width="16" height="1" rx="0.5"></rect>
            <path d="M12.6464466,9.14644661 C12.4511845,9.34170876 12.4511845,9.65829124 12.6464466,9.85355339 C12.8417088,10.0488155 13.1582912,10.0488155 13.3535534,9.85355339 L14.8535534,8.35355339 C15.0488155,8.15829124 15.0488155,7.84170876 14.8535534,7.64644661 L13.3535534,6.14644661 C13.1582912,5.95118446 12.8417088,5.95118446 12.6464466,6.14644661 C12.4511845,6.34170876 12.4511845,6.65829124 12.6464466,6.85355339 L13.7928932,8 L12.6464466,9.14644661 Z" id="Path-3" fill="#2A3052" fill-rule="nonzero"></path>
            <path d="M11.1666667,7.5 L9.3,6.1 C9.07036602,5.92777451 8.74319737,5.98381613 8.58397485,6.2226499 L6.95542117,8.66548043 L4.88411064,6.1799078 C4.69588639,5.9540387 4.35434709,5.93854613 4.14644661,6.14644661 L2.29289322,8 L0.5,8 C0.223857625,8 0,8.22385763 0,8.5 C0,8.77614237 0.223857625,9 0.5,9 L2.5,9 C2.63260824,9 2.7597852,8.94732158 2.85355339,8.85355339 L4.46640082,7.24070596 L6.61588936,9.8200922 C6.82985281,10.0768483 7.23063237,10.0554393 7.41602515,9.7773501 L9.12283903,7.21712927 L10.7,8.4 C10.7865481,8.46491106 10.8918149,8.5 11,8.5 L14.5,8.5 C14.7761424,8.5 15,8.27614237 15,8 C15,7.72385763 14.7761424,7.5 14.5,7.5 L11.1666667,7.5 Z" id="Path-15" fill="#2A3052" fill-rule="nonzero"></path>
        </g>
    </g>
</svg>

<svg width="16" height="16" viewBox="0 0 16 16" xmlns="http://www.w3.org/2000/svg"><title>icons/trade types/light/stays between-goes outside/ic-light-stays-between</title><g fill="none" fill-rule="evenodd"><path d="M0 0h16v16H0z"/><rect fill="#2A3052" transform="rotate(180 8 11.5)" y="11" width="16" height="1" rx=".5"/><rect fill="#2A3052" transform="rotate(180 8 4.5)" y="4" width="16" height="1" rx=".5"/><path d="M12.646 9.146a.5.5 0 0 0 .708.708l1.5-1.5a.5.5 0 0 0 0-.708l-1.5-1.5a.5.5 0 0 0-.708.708L13.793 8l-1.147 1.146z" fill="#2A3052" fill-rule="nonzero"/><path d="M11.167 7.5L9.3 6.1a.5.5 0 0 0-.716.123L6.955 8.665 4.885 6.18a.5.5 0 0 0-.739-.034L2.293 8H.5a.5.5 0 0 0 0 1h2a.5.5 0 0 0 .354-.146L4.466 7.24l2.15 2.58a.5.5 0 0 0 .8-.044l1.707-2.56L10.7 8.4a.5.5 0 0 0 .3.1h3.5a.5.5 0 1 0 0-1h-3.333z" fill="#2A3052" fill-rule="nonzero"/></g></svg>
